teeny/outline/webpack.svg

<svg viewBox="0 0 15 15" xmlns="http://www.w3.org/2000/svg"><path fill="none" stroke="#000" d="M1.5 10.5v-6m0 6l6 3.5m-6-3.5L5 9M1.5 4.5l6-3.5m-6 3.5l6 3m0-6.5l6 3.5M7.5 1v3.5m6 0v6m0-6l-6 3m6 3l-6 3.5m6-3.5L10 9m-2.5 5V7.5m0-3L5 6v3m2.5-4.5L10 6v3M5 9l2.5 1.5L10 9"/></svg>

<svg width="15" height="15" viewBox="0 0 15 15" fill="none" xmlns="http://www.w3.org/2000/svg">
<path d="M1.5 10.5V4.5M1.5 10.5L7.5 14M1.5 10.5L5 9M1.5 4.5L7.5 1M1.5 4.5L7.5 7.5M7.5 1L13.5 4.5M7.5 1V4.5M13.5 4.5V10.5M13.5 4.5L7.5 7.5M13.5 10.5L7.5 14M13.5 10.5L10 9M7.5 14V7.5M7.5 4.5L5 6V9M7.5 4.5L10 6V9M5 9L7.5 10.5L10 9" stroke="black"/>
</svg>
